dist/svg/u1F371.svg

<?xml version="1.0" encoding="UTF-8"?><svg id="Layer_1" xmlns="http://www.w3.org/2000/svg" viewBox="0 0 40 40"><g><rect x="3.5" y="3.5" width="33" height="33" rx="6" ry="6" style="fill:#3d3d3d;"/><rect x="3.5" y="3.5" width="33" height="23" rx="6" ry="6" style="fill:#767676;"/><g><path d="M18,15.89648H7.27527c-.55228,0-1,.44772-1,1v3.50122c0,2.20213,1.78518,3.9873,3.9873,3.9873h7.73743c.55228,0,1-.44772,1-1v-6.48853c0-.55228-.44772-1-1-1Z" style="fill:#292929;"/><path d="M19,12.89648V6.61499c0-.55228-.44772-1-1-1h-7.73749c-2.20209,0-3.98724,1.78515-3.98724,3.98724v3.29425c0,.55228,.44772,1,1,1h10.72473c.55228,0,1-.44772,1-1Z" style="fill:#292929;"/></g><path d="M29.73755,5.61499h-7.73755c-.55228,0-1,.44772-1,1V23.38501c0,.55228,.44772,1,1,1h7.73749c2.20209,0,3.98724-1.78515,3.98724-3.98724V9.60217c0-2.20206-1.78512-3.98718-3.98718-3.98718Z" style="fill:#e5e8eb;"/><circle cx="16.48991" cy="8.25413" r="1.45053" style="fill:#ec6700;"/><circle cx="16.48991" cy="11.59329" r="1.45053" style="fill:#ec6700;"/><rect x="11.8536" y="6.8036" width="2.55772" height="6.24022" rx="1.27886" ry="1.27886" style="fill:#ffcd00;"/><rect x="11.96209" y="13.76698" width="2.68407" height="9.2726" rx="1.31693" ry="1.31693" transform="translate(31.70741 5.09915) rotate(90)" style="fill:#03905a;"/><rect x="11.96209" y="17.08264" width="2.68407" height="9.2726" rx="1.31693" ry="1.31693" transform="translate(35.02307 8.41481) rotate(90)" style="fill:#03905a;"/><rect x="8.66783" y="6.8036" width="2.55772" height="6.24022" rx="1.27886" ry="1.27886" style="fill:#ffcd00;"/></g><rect width="40" height="40" style="fill:none;"/></svg>

<svg id="Layer_1" data-name="Layer 1" xmlns="http://www.w3.org/2000/svg" viewBox="0 0 40 40"><defs><style>.cls-1{fill:#3d3d3d;}.cls-2{fill:#767676;}.cls-3{fill:#292929;}.cls-4{fill:#e5e8eb;}.cls-5{fill:#ec6700;}.cls-6{fill:#ffcd00;}.cls-7{fill:#03905a;}.cls-8{fill:none;}</style></defs><rect class="cls-1" x="3.5" y="3.5" width="33" height="33" rx="6"/><rect class="cls-2" x="3.5" y="3.5" width="33" height="23" rx="6"/><path class="cls-3" d="M18,15.9H7.275a1,1,0,0,0-1,1v3.5a3.987,3.987,0,0,0,3.988,3.987H18a1,1,0,0,0,1-1V16.9A1,1,0,0,0,18,15.9Z"/><path class="cls-3" d="M19,12.9V6.615a1,1,0,0,0-1-1H10.263A3.987,3.987,0,0,0,6.275,9.6V12.9a1,1,0,0,0,1,1H18A1,1,0,0,0,19,12.9Z"/><path class="cls-4" d="M29.738,5.615H22a1,1,0,0,0-1,1v16.77a1,1,0,0,0,1,1h7.737A3.987,3.987,0,0,0,33.725,20.4V9.6A3.987,3.987,0,0,0,29.738,5.615Z"/><circle class="cls-5" cx="16.49" cy="8.254" r="1.451"/><circle class="cls-5" cx="16.49" cy="11.593" r="1.451"/><rect class="cls-6" x="11.854" y="6.804" width="2.558" height="6.24" rx="1.279"/><rect class="cls-7" x="11.962" y="13.767" width="2.684" height="9.273" rx="1.317" transform="translate(31.707 5.099) rotate(90)"/><rect class="cls-7" x="11.962" y="17.083" width="2.684" height="9.273" rx="1.317" transform="translate(35.023 8.415) rotate(90)"/><rect class="cls-6" x="8.668" y="6.804" width="2.558" height="6.24" rx="1.279"/><rect class="cls-8" width="40" height="40"/></svg>
